images/ftit_indicator.svg

<svg
  width="200"
  height="200"
  viewBox="0 0 452 452"
  fill="none"
  xmlns="http://www.w3.org/2000/svg"
>
  <g id="ftit_indicator 1" clip-path="url(#clip0)">
    <g id="ftit indicator 1">
      <g id="ftit indicator">
        <g id="saat">
          <g id="saat elemanlari">
            <g id="cizgiler">
              <path
                id="Vector 9"
                d="M382.97 322.35C391.1 326.994 399.23 331.636 407.36 336.28C412.968 339.483 418.005 330.842 412.407 327.645C404.277 323.001 396.147 318.359 388.017 313.715C382.407 310.515 377.367 319.155 382.967 322.355L382.97 322.35Z"
                fill="black"
              />
              <path
                id="Vector 10"
                d="M39.4436 122.334C47.5736 126.978 55.7035 131.62 63.8335 136.264C69.4415 139.467 74.4786 130.826 68.8806 127.629C60.7506 122.985 52.6206 118.343 44.4906 113.699C38.8806 110.499 33.8406 119.139 39.4406 122.339L39.4436 122.334Z"
                fill="black"
              />
              <path
                id="Vector 10 2"
                d="M313.5 387.05C318.237 395.48 322.974 403.909 327.711 412.338C330.87 417.959 339.509 412.919 336.346 407.291C331.609 398.861 326.872 390.433 322.135 382.003C318.985 376.383 310.345 381.423 313.505 387.053L313.5 387.05Z"
                fill="black"
              />
              <path
                id="Vector 8"
                d="M409.73 230.66H438.328C444.776 230.66 444.776 220.66 438.328 220.66H409.73C403.28 220.66 403.28 230.66 409.73 230.66Z"
                fill="black"
              />
              <path
                id="Vector 7"
                d="M387.66 138.43C395.91 133.513 404.16 128.597 412.41 123.681C417.942 120.384 412.917 111.737 407.363 115.046C399.113 119.963 390.863 124.879 382.613 129.795C377.083 133.095 382.103 141.745 387.663 138.435L387.66 138.43Z"
                fill="black"
              />
              <path
                id="Vector 6"
                d="M322.85 69.035C327.348 60.699 331.846 52.363 336.344 44.027C339.406 38.353 330.772 33.304 327.709 38.98C323.211 47.316 318.713 55.652 314.215 63.988C311.165 69.663 319.795 74.711 322.855 69.035H322.85Z"
                fill="black"
              />
              <path
                id="Vector 5"
                d="M230.73 41.224V13.061C230.73 6.61199 220.73 6.61199 220.73 13.061V41.224C220.73 47.672 230.73 47.672 230.73 41.224Z"
                fill="black"
              />
              <path
                id="Vector 4"
                d="M41.225 220.66H13.13C6.68096 220.66 6.68096 230.66 13.13 230.66H41.225C47.673 230.66 47.673 220.66 41.225 220.66Z"
                fill="black"
              />
              <path
                id="Vector 3"
                d="M63.799 312.89L39.049 327.638C33.516 330.935 38.543 339.582 44.096 336.273L68.846 321.525C74.379 318.225 69.353 309.575 63.799 312.885V312.89Z"
                fill="black"
              />
              <path
                id="Vector 2"
                d="M130.22 382.82C125.184 390.976 120.147 399.133 115.111 407.29C111.713 412.793 120.365 417.811 123.746 412.337C128.782 404.181 133.819 396.024 138.855 387.867C142.255 382.357 133.605 377.347 130.225 382.817L130.22 382.82Z"
                fill="black"
              />
              <path
                id="Vector"
                d="M220.73 409.73V438.26C220.73 444.708 230.73 444.708 230.73 438.26V409.73C230.73 403.28 220.73 403.28 220.73 409.73Z"
                fill="black"
              />
            </g>
            <path
              id="d&#195;&#131;&#194;&#132;&#195;&#130;&#194;&#177;s yuvarlak"
              d="M5 225.66C5.141 179.942 19.247 135.419 45.554 98.02C71.194 61.572 108.214 33.567 149.994 18.232C193.463 2.27599 241.658 0.81699 286.174 13.291C329.077 25.312 367.465 50.861 395.934 85.013C455.451 156.399 462.346 260.823 414.546 340.123C391.654 378.102 357.111 408.358 316.866 426.802C274.681 446.135 226.422 451.078 181.046 441.877C91.625 423.747 21.806 349.387 7.576 259.607C5.8 248.387 5.041 237.007 5.006 225.657C4.996 222.433 -0.00400357 222.432 0.00599643 225.657C0.143996 270.414 13.366 314.282 38.261 351.497C62.391 387.571 97.09 416.136 136.928 433.253C178.401 451.072 224.806 455.641 269.078 447.226C312.133 439.043 352.147 417.619 383.518 387.145C448.485 324.044 468.786 224.995 435.108 141.125C401.848 58.274 320.368 2.46499 231.368 -0.00501052C141.748 -2.49601 57.538 50.676 20.278 131.995C6.833 161.325 0.107996 193.425 0.00799643 225.655C-0.00200357 228.875 4.998 228.875 5.008 225.655L5 225.66Z"
              fill="black"
            />
          </g>
          <g id="imlecFtit" class="imlec">
            <path
              id="yuvarlak"
              d="M226.88 212.9H226.179C219.365 212.9 213.679 218.586 213.679 225.4C213.679 232.214 219.365 237.9 226.179 237.9H226.88C233.694 237.9 239.38 232.214 239.38 225.4C239.38 218.586 233.69 212.9 226.88 212.9Z"
              fill="black"
            />
            <path
              id="imlec"
              d="M228.378 217.222C228.114 167.885 227.85 118.548 227.586 69.2122C227.565 65.2656 227.543 61.3189 227.522 57.3714C227.506 54.1492 222.504 54.1926 222.523 57.4225C222.786 106.759 223.05 156.096 223.314 205.432C223.336 209.379 223.357 213.325 223.378 217.273C223.41 220.504 228.407 220.466 228.388 217.231L228.378 217.222Z"
              fill="black"
            />
          </g>
        </g>
        <path
          id="777"
          d="M63.3252 94.1172L58.0254 106H56.3203L61.6025 94.5391H54.6768V93.2031H63.3252V94.1172ZM73.4326 94.1172L68.1328 106H66.4277L71.71 94.5391H64.7842V93.2031H73.4326V94.1172ZM83.54 94.1172L78.2402 106H76.5352L81.8174 94.5391H74.8916V93.2031H83.54V94.1172Z"
          fill="black"
        />
        <path
          id="FTIT"
          d="M214.391 260.465H207.23V268H204.98V250.938H215.551V252.789H207.23V258.625H214.391V260.465ZM230.27 252.789H224.785V268H222.547V252.789H217.074V250.938H230.27V252.789ZM235.215 268H232.965V250.938H235.215V268ZM250.777 252.789H245.293V268H243.055V252.789H237.582V250.938H250.777V252.789Z"
          fill="#9C9B9B"
        />
        <path
          id="500"
          d="M186.457 29.5567L187.107 23.1758H193.664V24.6788H188.487L188.1 28.168C188.727 27.7989 189.439 27.6143 190.236 27.6143C191.402 27.6143 192.328 28.001 193.013 28.7745C193.699 29.542 194.042 30.5821 194.042 31.8946C194.042 33.2129 193.684 34.253 192.969 35.0147C192.26 35.7706 191.267 36.1485 189.99 36.1485C188.859 36.1485 187.936 35.835 187.221 35.2081C186.506 34.5811 186.099 33.7139 186 32.6065H187.538C187.637 33.3389 187.898 33.8926 188.32 34.2676C188.742 34.6368 189.298 34.8213 189.99 34.8213C190.746 34.8213 191.337 34.5635 191.765 34.0479C192.199 33.5323 192.416 32.8204 192.416 31.9122C192.416 31.0567 192.181 30.3711 191.712 29.8555C191.25 29.334 190.631 29.0733 189.858 29.0733C189.149 29.0733 188.592 29.2286 188.188 29.5391L187.757 29.8907L186.457 29.5567ZM203.841 30.5147C203.841 32.419 203.516 33.834 202.866 34.7598C202.215 35.6856 201.199 36.1485 199.816 36.1485C198.451 36.1485 197.44 35.6973 196.784 34.795C196.127 33.8868 195.788 32.5332 195.764 30.7344V28.5635C195.764 26.6827 196.089 25.2852 196.74 24.3711C197.39 23.4571 198.41 23 199.798 23C201.175 23 202.189 23.4424 202.839 24.3272C203.49 25.2061 203.824 26.5655 203.841 28.4053V30.5147ZM202.215 28.2911C202.215 26.9141 202.022 25.9122 201.635 25.2852C201.249 24.6524 200.636 24.336 199.798 24.336C198.966 24.336 198.36 24.6495 197.979 25.2764C197.598 25.9034 197.402 26.8672 197.39 28.168V30.7696C197.39 32.1524 197.589 33.1748 197.988 33.837C198.392 34.4932 199.001 34.8213 199.816 34.8213C200.619 34.8213 201.213 34.5108 201.6 33.8897C201.993 33.2686 202.198 32.2901 202.215 30.9541V28.2911ZM213.949 30.5147C213.949 32.419 213.624 33.834 212.973 34.7598C212.323 35.6856 211.306 36.1485 209.923 36.1485C208.558 36.1485 207.547 35.6973 206.891 34.795C206.235 33.8868 205.895 32.5332 205.872 30.7344V28.5635C205.872 26.6827 206.197 25.2852 206.847 24.3711C207.498 23.4571 208.517 23 209.906 23C211.283 23 212.296 23.4424 212.947 24.3272C213.597 25.2061 213.931 26.5655 213.949 28.4053V30.5147ZM212.323 28.2911C212.323 26.9141 212.129 25.9122 211.743 25.2852C211.356 24.6524 210.744 24.336 209.906 24.336C209.074 24.336 208.467 24.6495 208.086 25.2764C207.706 25.9034 207.509 26.8672 207.498 28.168V30.7696C207.498 32.1524 207.697 33.1748 208.095 33.837C208.5 34.4932 209.109 34.8213 209.923 34.8213C210.726 34.8213 211.321 34.5108 211.708 33.8897C212.1 33.2686 212.305 32.2901 212.323 30.9541V28.2911Z"
          fill="black"
        />
      </g>
    </g>
  </g>
  <defs>
    <clipPath id="clip0">
      <rect width="452" height="452" fill="white" />
    </clipPath>
  </defs>
</svg>

<svg xmlns="http://www.w3.org/2000/svg" xmlns:xlink="http://www.w3.org/1999/xlink" width="452" height="452" fill="none" xmlns:v="https://vecta.io/nano"><g clip-path="url(#A)"><g fill="#000"><use xlink:href="#B"/><path d="M39.444 122.334l24.4 13.93c5.608 3.203 10.645-5.438 5.047-8.635l-24.4-13.93c-5.6-3.2-10.65 5.44-5.05 8.64l.003-.005zM313.5 387.05l14.2 25.288c3.16 5.62 11.798.58 8.635-5.047l-14.2-25.288c-3.15-5.62-11.8-.58-8.63 5.05l-.005-.003zm96.23-156.4h28.598c6.448 0 6.448-10 0-10H409.73c-6.45 0-6.45 10 0 10zm-22.07-92.23l24.75-14.75c5.532-3.297.507-11.944-5.047-8.635l-24.75 14.75c-5.53 3.3-.5 11.95 5.05 8.64l-.003-.005zm-64.8-69.395l13.494-25.008c3.062-5.674-5.572-10.723-8.635-5.047l-13.494 25.008c-3.05 5.675 5.58 10.723 8.64 5.047h-.005zm-92.12-27.81V13.06c0-6.45-10-6.45-10 0v28.163c0 6.448 10 6.448 10 0zM41.225 220.66H13.13c-6.45 0-6.45 10 0 10h28.095c6.448 0 6.448-10 0-10zM63.8 312.9l-24.75 14.748c-5.533 3.297-.506 11.944 5.047 8.635l24.75-14.748c5.533-3.3.507-11.95-5.047-8.64v.005zm66.42 69.92l-15.1 24.47c-3.398 5.503 5.254 10.52 8.635 5.047l15.1-24.47c3.4-5.5-5.25-10.52-8.63-5.05l-.005.003zm90.5 26.9v28.53c0 6.448 10 6.448 10 0v-28.53c0-6.45-10-6.45-10 0zM5 225.66c.14-45.718 14.247-90.24 40.554-127.64 25.64-36.448 62.66-64.453 104.44-79.788 43.47-15.956 91.664-17.415 136.18-4.94 42.903 12.02 81.3 37.57 109.76 71.722 59.517 71.386 66.412 175.8 18.612 255.1-22.892 37.98-57.435 68.235-97.68 86.68-42.185 19.333-90.444 24.276-135.82 15.075-89.42-18.13-159.24-92.5-173.47-182.27C5.8 248.38 5.04 237 5.006 225.65c-.01-3.224-5-3.225-5 0 .138 44.757 13.36 88.625 38.255 125.84 24.13 36.074 58.83 64.64 98.667 81.756 41.473 17.82 87.878 22.388 132.15 13.973 43.055-8.183 83.07-29.607 114.44-60.08 64.967-63.1 85.268-162.15 51.6-246.02-33.26-82.85-114.74-138.66-203.74-141.13-89.62-2.5-173.83 50.68-211.1 132-13.445 29.33-20.17 61.43-20.27 93.66-.01 3.22 5 3.22 5 0L5 225.66zm221.88-12.76h-.7c-6.814 0-12.5 5.686-12.5 12.5s5.686 12.5 12.5 12.5h.7c6.814 0 12.5-5.686 12.5-12.5s-5.7-12.5-12.5-12.5z"/><path d="M228.378 217.222l-.856-159.85c-.016-3.222-5.018-3.18-5 .05l.855 159.85c.032 3.23 5.03 3.193 5-.042l-.01-.01zM63.325 94.117L58.025 106H56.32l5.282-11.46h-6.926v-1.336h8.648v.914zm10.107 0L68.133 106h-1.705L71.7 94.54h-6.926v-1.336h8.648v.914zm10.107 0L78.24 106h-1.705l5.282-11.46H74.89v-1.336h8.648v.914z"/></g><path d="M214.39 260.465h-7.16V268h-2.25v-17.062h10.57v1.85h-8.32v5.836h7.16v1.84zm15.88-7.676h-5.485V268h-2.238v-15.21h-5.473v-1.85h13.196v1.85zm4.945 15.21h-2.25v-17.062h2.25V268zm15.562-15.21h-5.484V268h-2.238v-15.21h-5.473v-1.85h13.195v1.85z" fill="#9c9b9b"/><path d="M186.457 29.557l.65-6.38h6.557v1.503h-5.177l-.387 3.49c.627-.37 1.34-.554 2.136-.554 1.166 0 2.092.387 2.777 1.16.686.768 1.03 1.808 1.03 3.12 0 1.318-.358 2.358-1.073 3.12-.71.756-1.702 1.134-2.98 1.134-1.13 0-2.054-.313-2.77-.94s-1.122-1.494-1.22-2.602h1.538c.1.732.36 1.286.782 1.66.422.37.978.554 1.67.554.756 0 1.347-.258 1.775-.773.434-.516.65-1.227.65-2.136 0-.855-.235-1.54-.704-2.057-.462-.52-1.08-.782-1.854-.782-.71 0-1.266.155-1.67.466l-.43.352-1.3-.334zm17.384.958c0 1.904-.325 3.32-.975 4.245s-1.667 1.39-3.05 1.39c-1.365 0-2.376-.45-3.032-1.353-.657-.908-.996-2.262-1.02-4.06v-2.17c0-1.88.325-3.278.976-4.192S198.4 23 199.798 23c1.377 0 2.39.442 3.04 1.327.65.88.985 2.238 1.002 4.078v2.11zm-1.626-2.224c0-1.377-.193-2.38-.58-3.006-.386-.633-1-.95-1.837-.95-.832 0-1.438.314-1.82.94s-.577 1.59-.59 2.892v2.602c0 1.383.2 2.405.598 3.067.404.656 1.013.984 1.828.984.803 0 1.397-.3 1.784-.932.393-.62.598-1.6.615-2.936V28.29zm11.734 2.224c0 1.904-.325 3.32-.976 4.245s-1.667 1.39-3.05 1.39c-1.365 0-2.376-.45-3.032-1.353-.656-.908-.996-2.262-1.02-4.06v-2.17c0-1.88.325-3.278.975-4.192s1.67-1.37 3.06-1.37c1.377 0 2.4.442 3.04 1.327.65.88.984 2.238 1.002 4.078v2.11zm-1.626-2.224c0-1.377-.194-2.38-.58-3.006-.387-.633-1-.95-1.837-.95-.832 0-1.44.314-1.82.94s-.577 1.59-.588 2.892v2.602c0 1.383.2 2.405.597 3.067.405.656 1.014.984 1.828.984.803 0 1.398-.3 1.785-.932s.597-1.6.615-2.936V28.29z" fill="#000"/></g><defs><clipPath id="A"><path fill="#fff" d="M0 0h452v452H0z"/></clipPath><path id="B" d="M382.97 322.35l24.4 13.93c5.608 3.203 10.645-5.438 5.047-8.635l-24.4-13.93c-5.6-3.2-10.65 5.44-5.05 8.64l.003-.005z"/></defs></svg>
